img/landing/experimentation.svg

<svg width="355" height="333" viewBox="0 0 355 333" fill="none" xmlns="http://www.w3.org/2000/svg">
<path d="M90.3634 78.4808L68.5191 65.8545L46.6887 78.4808L24.8443 91.0932L3 103.706L24.8443 116.318L46.6887 128.93L68.5191 116.318L90.3634 103.706L112.208 91.0932L90.3634 78.4808Z" stroke="#999DFF" stroke-width="4.48095" stroke-miterlimit="10" stroke-linejoin="round"/>
<path d="M90.3652 103.7L68.5208 116.313L46.6904 128.925V154.15V179.374V204.599V229.838L68.5208 217.225L90.3652 204.599V179.374V154.15L112.21 141.537V116.313V91.0879L90.3652 103.7Z" stroke="#999DFF" stroke-width="4.48095" stroke-miterlimit="10" stroke-linejoin="round"/>
<path d="M177.729 229.842L155.884 217.229L134.04 229.842L112.21 217.229L90.3652 204.603L68.5208 217.229L46.6904 229.842L68.5208 242.454L90.3652 255.066L112.21 267.679L134.04 280.291L155.884 267.679L177.729 255.066L199.573 242.454L177.729 229.842Z" stroke="#999DFF" stroke-width="4.48095" stroke-miterlimit="10" stroke-linejoin="round"/>
<path d="M112.208 267.68L90.3634 255.067L68.5191 242.455L46.6887 229.843V204.604V179.379V154.155V128.93L24.8443 116.317L3 103.705V128.93V154.155V179.379V204.604V229.843V255.067L24.8443 267.68L46.6887 280.292L68.5191 292.904L90.3634 305.517L112.208 318.129L134.038 330.742V305.517V280.292L112.208 267.68Z" stroke="#999DFF" stroke-width="4.48095" stroke-miterlimit="10" stroke-linejoin="round"/>
<path d="M177.728 128.93L155.883 116.318L134.039 128.93L112.209 141.543L90.3643 154.155L112.209 166.767L134.039 179.38L155.883 166.767L177.728 154.155L199.572 141.543L177.728 128.93Z" stroke="#999DFF" stroke-width="4.48095" stroke-miterlimit="10" stroke-linejoin="round"/>
<path d="M112.209 166.768L90.3643 154.156V179.38V204.605L112.209 217.232L134.039 229.844V204.605V179.38L112.209 166.768Z" stroke="#999DFF" stroke-width="4.48095" stroke-miterlimit="10" stroke-linejoin="round"/>
<path d="M177.726 154.155L155.881 166.768L134.037 179.38V204.605V229.843L155.881 217.231L177.726 204.605L199.57 191.992V166.768V141.543L177.726 154.155Z" stroke="#999DFF" stroke-width="4.48095" stroke-miterlimit="10" stroke-linejoin="round"/>
<path d="M177.726 255.07L155.881 267.682L134.037 280.295V305.519V330.744L155.881 318.132L177.726 305.519L199.57 292.907V267.682V242.458L177.726 255.07Z" stroke="#999DFF" stroke-width="4.48095" stroke-miterlimit="10" stroke-linejoin="round"/>
<path d="M221.47 129.237L199.611 141.85L221.47 154.476L243.328 167.102V141.85V116.611L221.47 129.237Z" stroke="#F6A5FE" stroke-width="4.48095" stroke-miterlimit="10" stroke-linejoin="round"/>
<path d="M221.47 53.4887L199.611 40.8623V66.115V91.3537L221.47 103.98L243.328 116.606V91.3537V66.115L221.47 53.4887Z" stroke="#F6A5FE" stroke-width="4.48095" stroke-miterlimit="10" stroke-linejoin="round"/>
<path d="M287.045 40.8681L265.186 53.4944L243.328 66.1208V91.3595V116.612L265.186 103.986L287.045 91.3595L308.903 78.7331V53.4944V28.2417L287.045 40.8681Z" stroke="#F6A5FE" stroke-width="4.48095" stroke-miterlimit="10" stroke-linejoin="round"/>
<path d="M330.764 116.612L308.905 129.239L287.047 141.851V167.104V192.356L308.905 179.73L330.764 167.104L352.622 154.477V129.239V103.986L330.764 116.612Z" stroke="#F6A5FE" stroke-width="4.48095" stroke-miterlimit="10" stroke-linejoin="round"/>
<path d="M265.186 129.237L243.328 116.611V141.85V167.102L265.186 179.729L287.045 192.355V167.102V141.85L265.186 129.237Z" stroke="#F6A5FE" stroke-width="4.48095" stroke-miterlimit="10" stroke-linejoin="round"/>
<path d="M265.186 179.727L243.328 167.101V192.353V217.592L265.186 204.966L287.045 192.353L265.186 179.727Z" stroke="#F6A5FE" stroke-width="4.48095" stroke-miterlimit="10" stroke-linejoin="round"/>
<path d="M221.47 154.475L199.611 141.848V167.101V192.354L221.47 204.966L243.328 217.592V192.354V167.101L221.47 154.475Z" stroke="#F6A5FE" stroke-width="4.48095" stroke-miterlimit="10" stroke-linejoin="round"/>
<path d="M330.762 91.3549L308.903 78.7285L287.045 91.3549L265.186 103.981L243.328 116.608L265.186 129.234L287.045 141.846L308.903 129.234L330.762 116.608L352.62 103.981L330.762 91.3549Z" stroke="#F6A5FE" stroke-width="4.48095" stroke-miterlimit="10" stroke-linejoin="round"/>
<path d="M287.045 15.6124L265.186 3L243.328 15.6124L221.47 28.2387L199.611 40.8651L221.47 53.4914L243.328 66.1178L265.186 53.4914L287.045 40.8651L308.903 28.2387L287.045 15.6124Z" stroke="#F6A5FE" stroke-width="4.48095" stroke-miterlimit="10" stroke-linejoin="round"/>
</svg>

<svg width="355" height="333" fill="none" xmlns="http://www.w3.org/2000/svg"><path d="M90.363 78.48 68.52 65.855 46.69 78.481 24.844 91.093 3 103.706l21.844 12.612L46.69 128.93l21.83-12.612 21.844-12.612 21.845-12.613-21.845-12.612Z" stroke="#999DFF" stroke-width="4.481" stroke-miterlimit="10" stroke-linejoin="round"/><path d="m90.365 103.7-21.844 12.613-21.83 12.612V229.838l21.83-12.613 21.844-12.626V154.15l21.845-12.613V91.088L90.365 103.7ZM177.729 229.842l-21.845-12.613-21.844 12.613-21.83-12.613-21.845-12.626-21.844 12.626-21.83 12.613 21.83 12.612 21.844 12.612 21.845 12.613 21.83 12.612 21.844-12.612 21.845-12.613 21.844-12.612-21.844-12.612Z" stroke="#999DFF" stroke-width="4.481" stroke-miterlimit="10" stroke-linejoin="round"/><path d="m112.208 267.68-21.845-12.613-21.844-12.612-21.83-12.612V128.93l-21.845-12.613L3 103.705v151.362l21.844 12.613 21.845 12.612 21.83 12.612 21.844 12.613 21.845 12.612 21.83 12.613v-50.45l-21.83-12.612ZM177.728 128.93l-21.845-12.612-21.844 12.612-21.83 12.613-21.845 12.612 21.845 12.612 21.83 12.613 21.844-12.613 21.845-12.612 21.844-12.612-21.844-12.613Z" stroke="#999DFF" stroke-width="4.481" stroke-miterlimit="10" stroke-linejoin="round"/><path d="m112.209 166.768-21.845-12.612v50.449l21.845 12.627 21.83 12.612V179.38l-21.83-12.612Z" stroke="#999DFF" stroke-width="4.481" stroke-miterlimit="10" stroke-linejoin="round"/><path d="m177.726 154.155-21.845 12.613-21.844 12.612v50.463l21.844-12.612 21.845-12.626 21.844-12.613v-50.449l-21.844 12.612ZM177.726 255.07l-21.845 12.612-21.844 12.613v50.449l21.844-12.612 21.845-12.613 21.844-12.612v-50.449l-21.844 12.612Z" stroke="#999DFF" stroke-width="4.481" stroke-miterlimit="10" stroke-linejoin="round"/><path d="m221.47 129.237-21.859 12.613 21.859 12.626 21.858 12.626v-50.491l-21.858 12.626ZM221.47 53.489l-21.859-12.627V91.354l21.859 12.626 21.858 12.626V66.115L221.47 53.489ZM287.045 40.868l-21.859 12.626-21.858 12.627v50.491l21.858-12.626 21.859-12.627 21.858-12.626V28.242l-21.858 12.626ZM330.764 116.612l-21.859 12.627-21.858 12.612V192.356l21.858-12.626 21.859-12.626 21.858-12.627v-50.491l-21.858 12.626Z" stroke="#F6A5FE" stroke-width="4.481" stroke-miterlimit="10" stroke-linejoin="round"/><path d="m265.186 129.237-21.858-12.626v50.491l21.858 12.627 21.859 12.626V141.85l-21.859-12.613Z" stroke="#F6A5FE" stroke-width="4.481" stroke-miterlimit="10" stroke-linejoin="round"/><path d="m265.186 179.727-21.858-12.626v50.491l21.858-12.626 21.859-12.613-21.859-12.626Z" stroke="#F6A5FE" stroke-width="4.481" stroke-miterlimit="10" stroke-linejoin="round"/><path d="m221.47 154.475-21.859-12.627v50.506l21.859 12.612 21.858 12.626v-50.491l-21.858-12.626ZM330.762 91.355l-21.859-12.627-21.858 12.627-21.859 12.626-21.858 12.627 21.858 12.626 21.859 12.612 21.858-12.612 21.859-12.626 21.858-12.627-21.858-12.626ZM287.045 15.612 265.186 3l-21.858 12.612L221.47 28.24l-21.859 12.626 21.859 12.626 21.858 12.627 21.858-12.627 21.859-12.626 21.858-12.626-21.858-12.627Z" stroke="#F6A5FE" stroke-width="4.481" stroke-miterlimit="10" stroke-linejoin="round"/></svg>
